X: 1705
T: Anto's Gambit
R: reel
M: 4/4
K: Edorian
EGBe zBEF|Bf zE E~F3|EGBe zBGE|AFDG EFGF|
EGBe zBEF|Bf zE E~F3|FEFG GFGA|1 AGAB edBA:|2 AGAB Eggf||
ez bb e~g3|gfaf dz fe|~g3e Bega|f~a3 ed (3Bcd|
~b3g e~g3|gfaf dz ed|bge afd ~g2-|gaed ed (3Bcd|
egbg e~g3|gfaf dz fe|~g3e Bega|fz ~a2 ed (3Bcd|
bge afd ~g2-|gbed edA~B-|BAAG AG~F2-|FAAG AGFz||

